X:1
T:Autumn woods
C:anon.
L:1/16
M:4/4
I:linebreak $
K:C
V:1 treble 
V:1
 .a2b2 c2 (Bc) z8 | dedc BcBA z8 | G^FGD EDB,D z8 | cBce dBgB z8 | AGAB A2(Bc) z8 |$ dedc BcBA z8 | %6
 G^FGD EDB,D z8 | Gg^fedcBA z8 | G2G2G2 :: (cB) | ABAG ^FGAB z8 |$ cBce de^fg z8 | a^fge fdec z8 | %13
 dcde dcBc z8 | dcBd cBAc z8 | BAG^F GABc z8 |$ dg^fe dcBA z8 | G2G2G2 :| %18
